rospo-icon-theme-classic-common/48x48/places/folder-teal-mail-cloud.svg

<svg height="48" width="48" xmlns="http://www.w3.org/2000/svg"><rect height="26" opacity=".2" rx="2" width="40" x="4" y="17"/><path d="m4 34c0 1.108.892 2 2 2h36c1.108 0 2-.892 2-2v-22c0-1.108-.892-2-2-2h-20v-2c0-1.108-.892-2-2-2h-14c-1.108 0-2 .892-2 2" fill="#12806a"/><rect height="26" opacity=".2" rx="2" width="40" x="4" y="15"/><rect fill="#e4e4e4" height="16" rx="2" width="36" x="6" y="13"/><rect fill="#16a085" height="26" rx="2" width="40" x="4" y="16"/><path d="m6 6c-1.108 0-2 .892-2 2v1c0-1.108.892-2 2-2h14c1.108 0 2 .892 2 2v-1c0-1.108-.892-2-2-2zm16 4v1h20c1.108 0 2 .892 2 2v-1c0-1.108-.892-2-2-2z" fill="#fff" opacity=".1"/><path d="m23 23a5 5 0 0 0 -4.732 3.398 4 4 0 0 0 -2.268 3.602 4 4 0 0 0 4 4 4 4 0 0 0 2.658-1.018 5 5 0 0 0  .342.018 5 5 0 0 0 2.113-.475 4 4 0 0 0 1.887.475 4 4 0 0 0 4-4 4 4 0 0 0 -4-4 4 4 0 0 0 -.008 0 5 5 0 0 0 -3.992-2z" fill="#08382e"/></svg>

<svg xmlns="http://www.w3.org/2000/svg" width="48" height="48" version="1">
 <rect style="opacity:0.2" width="40" height="26" x="4" y="17" rx="2" ry="2"/>
 <path style="fill:#12806a" d="M 4,34 C 4,35.108 4.892,36 6,36 H 42 C 43.108,36 44,35.108 44,34 V 12 C 44,10.892 43.108,10 42,10 H 22 V 8 C 22,6.892 21.108,6 20,6 H 6 C 4.892,6 4,6.892 4,8"/>
 <rect style="opacity:0.2" width="40" height="26" x="4" y="15" rx="2" ry="2"/>
 <rect style="fill:#dcdcdc" width="36" height="16" x="6" y="13" rx="2" ry="2"/>
 <rect style="fill:#16a085" width="40" height="26" x="4" y="16" rx="2" ry="2"/>
 <path style="opacity:0.1;fill:#ffffff" d="M 6,6 C 4.892,6 4,6.892 4,8 V 9 C 4,7.892 4.892,7 6,7 H 20 C 21.108,7 22,7.892 22,9 V 8 C 22,6.892 21.108,6 20,6 Z M 22,10 V 11 H 42 C 43.108,11 44,11.892 44,13 V 12 C 44,10.892 43.108,10 42,10 Z"/>
 <path style="fill:#08382e" d="M 23,23 A 5,5 0 0 0 18.268,26.398 4,4 0 0 0 16,30 4,4 0 0 0 20,34 4,4 0 0 0 22.658,32.982 5,5 0 0 0 23,33 5,5 0 0 0 25.113,32.525 4,4 0 0 0 27,33 4,4 0 0 0 31,29 4,4 0 0 0 27,25 4,4 0 0 0 26.992,25 5,5 0 0 0 23,23 Z"/>
</svg>
